kwork_juristConsalt/img/svg/vkIcon.svg

<svg width="36" height="36" viewBox="0 0 36 36" fill="none" xmlns="http://www.w3.org/2000/svg">
<g clip-path="url(#clip0)">
<path fill-rule="evenodd" clip-rule="evenodd" d="M35.175 8.922C35.424 8.103 35.175 7.5 33.9825 7.5H30.045C29.043 7.5 28.581 8.0205 28.3305 8.595C28.3305 8.595 26.328 13.389 23.4915 16.503C22.5735 17.406 22.1565 17.6925 21.6555 17.6925C21.405 17.6925 21.0285 17.406 21.0285 16.5855V8.922C21.0285 7.938 20.7525 7.5 19.9185 7.5H13.7265C13.101 7.5 12.7245 7.956 12.7245 8.3895C12.7245 9.321 14.1435 9.537 14.289 12.159V17.856C14.289 19.1055 14.0595 19.332 13.5585 19.332C12.2235 19.332 8.976 14.5155 7.0485 9.0045C6.675 7.932 6.297 7.5 5.2905 7.5H1.35C0.225 7.5 0 8.0205 0 8.595C0 9.618 1.335 14.7 6.2175 21.4215C9.4725 26.0115 14.055 28.5 18.2295 28.5C20.733 28.5 21.042 27.948 21.042 26.9955V23.526C21.042 22.4205 21.279 22.2 22.0725 22.2C22.6575 22.2 23.658 22.488 25.995 24.7005C28.665 27.324 29.1045 28.5 30.6075 28.5H34.545C35.67 28.5 36.234 27.948 35.91 26.856C35.553 25.77 34.278 24.1935 32.5875 22.323C31.6695 21.258 30.2925 20.1105 29.874 19.536C29.2905 18.7995 29.457 18.471 29.874 17.8155C29.874 17.8155 34.674 11.1765 35.1735 8.922H35.175Z" fill="#2787F5"/>
</g>
<defs>
<clipPath id="clip0">
<rect width="36" height="36" fill="white"/>
</clipPath>
</defs>
</svg>

<svg width="36" height="36" fill="none" xmlns="http://www.w3.org/2000/svg"><g clip-path="url(#clip0)"><path fill-rule="evenodd" clip-rule="evenodd" d="M35.175 8.922c.249-.819 0-1.422-1.192-1.422h-3.938c-1.002 0-1.464.52-1.715 1.095 0 0-2.002 4.794-4.838 7.908-.919.903-1.335 1.19-1.837 1.19-.25 0-.627-.287-.627-1.108V8.922c0-.984-.275-1.422-1.11-1.422h-6.191c-.626 0-1.002.456-1.002.89 0 .931 1.418 1.147 1.564 3.769v5.697c0 1.25-.23 1.476-.73 1.476-1.335 0-4.583-4.817-6.51-10.328C6.675 7.933 6.296 7.5 5.29 7.5H1.35C.225 7.5 0 8.02 0 8.595 0 9.618 1.335 14.7 6.218 21.422c3.255 4.59 7.837 7.078 12.012 7.078 2.503 0 2.812-.552 2.812-1.505v-3.469c0-1.105.237-1.326 1.03-1.326.585 0 1.586.288 3.923 2.5 2.67 2.624 3.11 3.8 4.613 3.8h3.937c1.125 0 1.689-.552 1.365-1.644-.357-1.086-1.632-2.663-3.322-4.533-.919-1.065-2.296-2.213-2.714-2.787-.583-.737-.417-1.065 0-1.72 0 0 4.8-6.64 5.3-8.894h.001z" fill="#2787F5"/></g><defs><clipPath id="clip0"><path fill="#fff" d="M0 0h36v36H0z"/></clipPath></defs></svg>
